dist/assets/img/icon-climate.svg

<svg width="58" height="58" viewBox="0 0 58 58" fill="none" xmlns="http://www.w3.org/2000/svg">
<path d="M49.778 7H29.0004C16.8699 7 7.00057 16.8694 7.00057 29C7.00057 34.6265 9.12617 39.7642 12.6134 43.6588L7.35833 48.9132C6.88056 49.3903 6.88056 50.1645 7.35833 50.6416C7.59738 50.8806 7.90976 51 8.22281 51C8.53586 51 8.84824 50.8806 9.08729 50.6422L14.3424 45.3871C18.2362 48.8744 23.3736 51 29.0002 51C41.1306 51 51 41.1306 51 29V8.22229C51 7.54707 50.453 7.00007 49.7778 7.00007L49.778 7ZM48.5558 29C48.5558 39.7826 39.7829 48.5555 29.0004 48.5555C24.0481 48.5555 19.5221 46.701 16.0737 43.6553L18.5069 41.2222H35.1115C35.7868 41.2222 36.3337 40.6752 36.3337 39.9999C36.3337 39.3247 35.7868 38.7777 35.1115 38.7777H20.9513L25.8402 33.8888H40.0004C40.6756 33.8888 41.2226 33.3419 41.2226 32.6666C41.2226 31.9914 40.6756 31.4444 40.0004 31.4444H28.2846L33.1735 26.5555H42.4448C43.12 26.5555 43.667 26.0085 43.667 25.3333C43.667 24.6581 43.12 24.1111 42.4448 24.1111H35.6176L43.3087 16.42C43.7864 15.9429 43.7864 15.1688 43.3087 14.6917C42.8309 14.2139 42.0575 14.2139 41.5804 14.6917L33.8893 22.3828V15.5555C33.8893 14.8803 33.3423 14.3333 32.6671 14.3333C31.9919 14.3333 31.4449 14.8803 31.4449 15.5555V24.827L26.5561 29.7158V18C26.5561 17.3248 26.0091 16.7778 25.3338 16.7778C24.6586 16.7778 24.1116 17.3248 24.1116 18V32.1603L19.2228 37.0492V22.8889C19.2228 22.2136 18.6758 21.6666 18.0006 21.6666C17.3253 21.6666 16.7784 22.2136 16.7784 22.8889V39.4936L14.3452 41.9268C11.2995 38.4777 9.44508 33.952 9.44508 29.0001C9.44508 18.2175 18.2179 9.44453 29.0005 9.44453H48.5559L48.5558 29Z" fill="#424244"/>
</svg>

<svg width="58" height="58" fill="none" xmlns="http://www.w3.org/2000/svg"><path d="M49.778 7H29C16.87 7 7 16.87 7 29a21.91 21.91 0 005.613 14.659l-5.255 5.254A1.221 1.221 0 008.223 51c.313 0 .625-.12.864-.358l5.255-5.255A21.905 21.905 0 0029 51c12.13 0 22-9.87 22-22V8.222C51 7.547 50.453 7 49.778 7zm-1.222 22c0 10.783-8.773 19.556-19.556 19.556a19.47 19.47 0 01-12.926-4.9l2.433-2.434H35.11a1.222 1.222 0 100-2.444H20.95l4.89-4.89H40a1.222 1.222 0 100-2.444H28.284l4.888-4.889h9.272a1.222 1.222 0 100-2.444h-6.827l7.69-7.691a1.221 1.221 0 10-1.728-1.728l-7.69 7.69v-6.827a1.222 1.222 0 10-2.445 0v9.272l-4.889 4.889V18a1.222 1.222 0 10-2.444 0v14.16l-4.89 4.89V22.888a1.222 1.222 0 10-2.444 0v16.605l-2.433 2.433A19.472 19.472 0 019.445 29C9.445 18.218 18.218 9.445 29 9.445h19.556V29z" fill="#424244"/></svg>
